!!!COM: Scarlatti, Domenico
!!!CDT: 1685-1757
!!!OTL: Sonata in C minor, L.4, K.158
!!!SCT: K. 158
!!!SCT: L. 4
!!!OMD: ANDANTE ([quarter-dot]=40)
!!!ONB: Scan pages 2 and 3 are swapped
**kern	**kern	**dynam
*staff2	*staff1	*staff1/2
*I"L.4 (K.158)	*I"L.4 (K.158)	*
*clefF4	*clefG2	*
*k[b-e-a-]	*k[b-e-a-]	*
*c:	*c:	*
*M3/8	*M3/8	*
*MM120	*MM120	*
=1	=1	=1
4.r	(8ggL	p
.	8ee-	.
.	8ccJ	.
=2	=2	=2
4.r	8bn:L<	.
.	8g)	.
.	([8a-J [8dd	mf
=3	=3	=3
(<8A-L 8f	8a-L] 8dd]	.
8G 8e-	8cc	.
8FJ 8d	8ddJ	.
=4	=4	=4
8E-L 8c	8ee-L	.
8D 8Bn	8ff	.
8CJ 8c	8ggJ	.
=5	=5	=5
*^	*	*
8c 8dL	8F)	8aa-L)	.
(8c 8e-	4G	(8cc	.
8dJ)	.	8bnJ)	.
*v	*v	*	*
=6	=6	=6
.	(16qqbn/	.
(8cL	4.cc)	>
8CJ)	.	] p
8r	.	.
!!LO:LB:g=z
=7	=7	=7
4c	8r	p
.	(16e-LL	.
.	32fL	.
.	32gJJ	.
(<8F 8c	[8a-J)	.
=8	=8	=8
4E-) 4c	8a-L]	<
.	(16gL	.
.	32anL	.
.	32bnJJ	.
(<8A-X 8c	[8ccJ)	.
=9	=9	=9
4G) 4d	8ccL]	.
.	(16bnL	.
.	32ccL	.
.	32ddJJ	.
(<8c	[8ee-J)	.
=10	=10	=10
!	!	!LO:DY:rj
4Bn) 4g	8ee-L]	mf
.	(16ddL	.
.	32ee-L	.
.	32ffJJ	.
(8e-	8ggJ	.
=11	=11	=11
8dL 8f	8ffL)	.
8c 8e-)	(8.ee-T	.
(<8CJ	.	.
.	32ddLL	.
.	32ee-JJJ)	.
=12	=12	=12
.	(16qqee-/	.
8GL	4dd)	>
8D	.	.
8GGJ)	8r	]]
!!LO:LB:g=z
=13	=13	=13
4c	8r	p
.	(16e-LL	.
.	32fL	.
.	32gJJ	.
(<8F 8c	[8a-J)	.
=14	=14	=14
4E-) 4B- 4e-	8a-L]	.
.	(16gL	.
.	32a-L	.
.	32b-JJ	.
(<8A- 8c	[8ccJ)	.
=15	=15	=15
4G) 4e-	8ccL]	.
.	(16b-L	.
.	32ccL	.
.	32ddJJ	.
(<8c	[8ee-J)	.
=16	=16	=16
4B- 4f	8ee-L]	<
.	(32ddLL	.
.	64ccL	.
.	64dd	.
.	64ee-	.
.	64ff	.
.	64gg	.
.	64aa-JJJ	.
8G 8B- 8e-	8bb-'J)	[ f
=17	=17	=17
*^	*	*
8e- 8fL	8A-)	8cccL	p
(8g 8e-	4B-	(8ee-	.
8fJ)	.	8ddJ)	.
*v	*v	*	*
!!LO:LB:g=z
=18	=18	=18
.	(16qqdd/	.
(8e-L	4.ee-)	>
8g	.	.
8e-J)	.	]
=19	=19	=19
*^	*	*
(8B-L	(4.B-	8r	p
8f	.	(32ddLLL	.
.	.	32ff	.
.	.	32ee-	.
.	.	32ggJJ	.
8dJ)	.	[8ffJ)	.
=20	=20	=20	=20
(8GL	4.G	8ffL]	.
8e-	.	(32ee-LL	.
.	.	32gg	.
.	.	32ff	.
.	.	32aa-JJ	.
8B-J)	.	[8ggJ)	.
=21	=21	=21	=21
(8FL	4.F	8ggL]	<
8d	.	(32ffLL	.
.	.	32aa-	.
.	.	32gg	.
.	.	32bb-JJ	.
8A-J)	.	[8aa-J)	.
=22	=22	=22	=22
(8E-L	4.E-	8aa-L]	.
8e-	.	(32ggLL	.
.	.	32bb-	.
.	.	32aa-	.
.	.	32cccJJ	.
8B-J)	.	[8bb-J	.
!!LO:LB:g=z
=23	=23	=23	=23
(8A-L	4.A-)	8bb-L]	mf
8e-	.	8ccc	.
8fJ)	.	8ccJ)	.
*v	*v	*	*
=24	=24	=24
.	(32qqee-/	.
(<4A- 4B- 4d 4f	4ddm)	.
8G 8B- 8e-	(8ee-	.
=25	=25	=25
*^	*	*
8e-L 8f	8A-)	8cccL)	.
8e- (>8g	4B-	(8ee-	.
8fJ)	.	8ddJ)	.
*v	*v	*	*
=26	=26	=26
.	(16qqdd/	>
(8e-L	4.ee-)	.
8g	.	.
8e-J)	.	]]
=27	=27	=27
*^	*	*
8B-L	(4.B-	8r	pp
8f	.	(32ddLLL	.
.	.	32ff	.
.	.	32ee-	.
.	.	32ggJJ	.
8dJ	.	[8ffJ)	.
=28	=28	=28	=28
(8GL	4.G	8ffL]	.
8e-	.	(32ee-LL	.
.	.	32gg	.
.	.	32ff	.
.	.	32aa-JJ	.
8B-J)	.	[8ggJ)	.
!!LO:LB:g=z
=29	=29	=29	=29
(8FL	4.F	8ggL]	<
8d	.	(32ffLL	.
.	.	32aa-	.
.	.	32gg	.
.	.	32bb-JJ	.
8A-J)	.	[8aa-J)	.
=30	=30	=30	=30
(8E-L	4.E-	8aa-L]	.
8e-	.	(32ggLL	.
.	.	32bb-	.
.	.	32aa-	.
.	.	32cccJJ	.
8B-J)	.	8bb-J)	.
=31	=31	=31	=31
(8A-L	4.A-)	(8bbnL	p
8e-	.	8ccc)	.
8fJ)	.	8cc'J	.
*v	*v	*	*
=32	=32	=32
.	(32qqee-/	.
(<4A- 4B- 4d 4f	4ddm)	.
8G 8B- 8e-	(8ee-	.
=33	=33	=33
*^	*	*
8e-L 8f	8A-)	8cccL)	.
8e- (>8g	4B-	(8ee-	.
8fJ)	.	8ddJ)	.
*v	*v	*	*
=34	=34	=34
.	(16qqdd/	>
(8e-L	4.ee-)	.
8f	.	.
8gJ)	.	]]
!!LO:LB:g=z
=61	=61	=61
*	*^	*
!	!	!	!LO:DY:rj
(4a-	4.ee-	(8ccM	mf >
.	.	4b-)	.
8g)	.	.	]
=62	=62	=62	=62
(4f	4.ee-	(8a-M	p
.	.	4g)	]
8e-)	.	.	.
=63	=63	=63	=63
(4A-	4.ee-	(8fM	.
.	.	4e-)	.
8G)	.	.	.
*	*v	*v	*
=64	=64	=64
(8A-L	(24a-LL	.
.	24g	.
.	24fJ	.
8B-	8g'	.
8BB-J	8f'J	.
=65	=65	=65
8E-L	4.e-)	.
8F	.	.
8GJ)	.	.
=66	=66	=66
4A- 4B-	(8d 8dd	mf
.	4e-) 4ee-	.
8G (>8B-	.	.
=67	=67	=67
4A- 4c	(8f/ 8ff/	.
.	4e-) 4ee-	.
8G 8B-)	.	.
!!LO:LB:g=z
=68	=68	=68
(8A-L	(8cccL	.
8B-	8bb-	.
8BB-J	8ddJ	.
=69	=69	=69
8E-L	4.ee-MM)	.
8F	.	.
8GJ)	.	.
=70	=70	=70
4B- 4A-	(8d 8dd	p
.	4e-) 4ee-	.
8G (>8B-	.	.
=71	=71	=71
4A- 4c	(8f/ 8ff/	.
.	4e-) 4ee-	.
8G) 8B-	.	.
=72	=72	=72
(8A-L	(8cccL	.
8B-	8bb-	.
8BB-J	8ddJ	.
=73	=73	=73
8E-L	16ee-LL)	<
.	(16gg	.
8F	16ee-	.
.	16b-	.
8GJ)	16g	.
.	16b-JJ)	.
!!LO:LB:g=z
=74	=74	=74
.	(8qb-/	mf
(8A-L	(24a-LL)	.
.	24g	.
.	24fJ	.
8B-'	8e-'	.
8BB-'J)	8d'J)	.
=75	=75	=75
.	(8qqd/	.
4.E-	4.e-)	> ]
=76:|!|:	=76:|!|:	=76:|!|:
*	*	*^
!	!	!	!LO:HP:b=2
(4e-M	16r	mf	>
.	16g (>16ee-	<	.
.	[4a-) [4ff	[	.
8d)	.	.	]
=77	=77	=77	=77
!	!	!	!LO:HP:b=2
(4e-M	16a-]LL 16ff]	p	>
.	16gJJ (>16ee-	<	.
.	[4a-) [4ff	[	.
8d)	.	.	]
*	*	*v	*v
=78	=78	=78
*	*^	*
(<4e-M	16a-LL] 16ff]	8ryy	.
.	&(<16gJJ (16ee-	.	<
.	4ff)	8a-L	[ <
8d-	.	[8b-J	.
=79	=79	=79	=79
4.c	(4een	8b-L]	.
.	.	8dd-	.
.	8ff)	8ccJ	.
!!LO:LB:g=z
=80	=80	=80	=80
4.en	4.gg	8b-L	mf
.	.	(>8a-	.
.	.	8gJ&))	.
*	*v	*v	*
=81	=81	=81
8fL	(8.a-LM	>
8c	.	.
.	16gk	.
8FJ)	8fJ)	]]
=82	=82	=82
(4fM	16r	mf
.	16a- (>16ff	<
.	[4b-) [4gg	[
8en)	.	.
=83	=83	=83
!	!	!LO:DY:rj
(4fM	16b-]LL 16gg]	p
.	16a-JJ (>16ff	<
.	[4b-) [4gg	[
8en)	.	.
=84	=84	=84
*	*^	*
(<4fM	16ryy	16b-LL] 16gg]	.
.	(16cc	&([16ccJJ	<
.	8aa-L	4cc_	[
!	!	!	!LO:DY:rj
8e-X	8ggJ	.	mf
=85	=85	=85	=85
4d	8ffL	4cc]	.
.	8ee-&)	.	[
8g	8ddJ	8bn	.
*	*v	*v	*
!!LO:LB:g=z
=86	=86	=86
4c 4e- 4g	8ee-L	.
.	8ff	.
8B- 8d 8g	8ggJ	.
=87	=87	=87
*^	*	*
&(4g	4.A- 4.c)	8ddL)	.
.	.	(8.ccT	.
8f&)	.	.	.
.	.	32bnLL	.
.	.	32ccJJJ)	.
*v	*v	*	*
=88	=88	=88
.	(16qqcc/	.
(8.GL	(4dd)	>
32AnLL	.	] p
32BnJJ	.	.
[8cJ)	8g) 8ee-	.
=89	=89	=89
*	*^	*
.	(16qqee-/	.	.
8cL]	(4dd)	4.g	<
(16BnL	.	.	.
32cL	.	.	.
32dJJJ	.	.	.
[8e-)	8cc)	.	.
*	*v	*v	*
=90	=90	=90
8e-]L	(8g\ 8cc\	.
(16dL	[4bn)	.
32e-L	.	.
32fJJ	.	.
8gJ	.	.
=91	=91	=91
8fL)	8bnL]	.
(<8e- 8g	(8cc	.
8dnJ 8f	8ddJ	.
!!LO:LB:g=z
=92	=92	=92
!	!	!LO:DY:rj
8cL 8e-	8.gL<	mf
8B- 8d	.	.
.	32anLL	.
.	32bnJJ	.
8A-X 8cJ	[8ccJ)	.
=93	=93	=93
*^	*	*
(4d	8GL	8ccL]	p
.	8F	(16bnL	<
.	.	32ccL	.
.	.	32ddJJ	.
8c)	8E-J)	[8ee-J)	.
=94	=94	=94	=94
(8c [8dL	(4F	8ee-L]	.
8Bn 8d]	.	(16ddL	.
.	.	32ee-L	.
.	.	32ffJJ	.
8cJ)	8E-)	8ggJ	.
=95	=95	=95	=95
8Bn 8G 8F	8DL	8ffL)	mf
4G 4c	(8E-	(8.ee-T	.
.	8CJ)	.	.
.	.	32ddLL	.
.	.	32ee-JJJ)	.
*v	*v	*	*
=96	=96	=96
.	(16qqee-/	.
(8GL	4.dd)	>
8g	.	.
8dJ)	.	]]
!!LO:LB:g=z
=35	=35	=35
*^	*	*
(8A-L	(4.A-	8r	p
8f	.	(32bnLLL	.
.	.	32dd	.
.	.	32cc	.
.	.	32ee-JJ	.
8dJ)	.	[8ddJ)	.
=36	=36	=36	=36
(8GL	4.G	8ddL]	.
8e-	.	(32ccLL	.
.	.	32ee-	.
.	.	32dd	.
.	.	32ffJJ	.
8cJ)	.	[8ee-J)	.
=37	=37	=37	=37
(8FL	4.F	8ee-L]	<
8d	.	(32ddLL	.
.	.	32ff	.
.	.	32ee-	.
.	.	32ggJJ	.
8BnJ)	.	[8ffJ)	.
=38	=38	=38	=38
(8E-L	4.E-	8ffL]	.
8c	.	(32ee-LL	.
.	.	32gg	.
.	.	32ff	.
.	.	32aa-JJ	.
8GJ)	.	8ggJ	.
=39	=39	=39	=39
8c 8dL	8F)	8cccL)	mf
8c (>8e-	4G	(8cc	.
8dJ)	.	8bnJ)	.
*v	*v	*	*
=40	=40	=40
.	(16qqbn/	.
(8cL	4.cc)	>
8g	.	.
8e-J)	.	]]
!!LO:LB:g=z
=97	=97	=97
*^	*	*
(8A-L	(4.A-	8r	pp
8f	.	(32bnLLL	.
.	.	32dd	.
.	.	32cc	.
.	.	32ee-JJ	.
8dJ)	.	[8ddJ)	.
=98	=98	=98	=98
(8GL	4.G	8ddL]	.
8e-	.	(32ccLL	.
.	.	32ee-	.
.	.	32dd	.
.	.	32ffJJ	.
8cJ)	.	[8ee-J)	.
=99	=99	=99	=99
(8FL	4.F	8ee-L]	<
8d	.	(32ddLL	.
.	.	32ff	.
.	.	32ee-	.
.	.	32ggJJ	.
8BnJ)	.	[8ffJ)	.
=100	=100	=100	=100
(8E-L	4.E-	8ffL]	.
8c	.	(32ee-LL	.
.	.	32gg	.
.	.	32ff	.
.	.	32aa-JJ	.
8GJ)	.	8ggJ	.
=101	=101	=101	=101
8cL 8d	8F)	8cccL)	p
(8c 8e-	4G	(8cc	.
8dJ)	.	8bnJ)	.
*v	*v	*	*
=102	=102	=102
.	(16qqbn/	.
(8cL	4.cc)	>
8d	.	.
8e-J)	.	]
*clefG2	*	*
!!LO:LB:g=z
=41	=41	=41
*	*^	*
(4ff	4.ccc	(8aa-M	mf >
.	.	4gg)	.
8ee-)	.	.	]]
=42	=42	=42	=42
(4dd	4.ccc	(8ffM	p
.	.	4ee-)	.
8cc)	.	.	.
=43	=43	=43	=43
(4f 4a-	4.ccc	(8ddm	.
.	.	4cc)	.
8e-) 8g	.	.	.
*	*v	*v	*
=44	=44	=44
(8fL	(24ffLL	.
.	24ee-	.
.	24ddJ	.
8g	8cc 8ee-	.
8GJ	8bn'J 8dd')	.
=45	=45	=45
.	(<16qqdd/ 16qqbn/	.
8cL	4.cc)	.
8d	.	.
8e-J)	.	.
=46	=46	=46
*	*^	*
(4f	4.cc	(8a-M	.
.	.	4g)	.
8e-)	.	.	.
=47	=47	=47	=47
(4d	4.cc	(8fM	.
.	.	4e-)	.
8c)	.	.	.
*clefF4	*	*	*
!!LO:LB:g=z
=48	=48	=48	=48
4F (>4A-	4.cc	(8dm	.
.	.	4c)	.
8E- 8G)	.	.	.
*	*v	*v	*
=49	=49	=49
(8FL	(24fLL	.
.	24e-	.
.	24dJ	.
8G	8e-' 8c'	.
8GGJ	8Bn'J) 8d	.
=50	=50	=50
.	(16qqd/ 16qqBn/	.
8CL	4.cn)	.
8D	.	.
8E-J)	.	.
=51	=51	=51
4F 4G	(4Bn 4bn	mf
8E- (>8G	8c) 8cc	.
=52	=52	=52
4F 4A-	(8d 8dd	.
.	4c) 4cc	.
8E- 8G)	.	.
=53	=53	=53
(8FL	(8aa-L	.
8G	8gg	.
8GGJ)	8bnJ)	.
!!LO:LB:g=z
=54	=54	=54
(8cL	4.ccMM	.
8d	.	.
8e-J	.	.
=55	=55	=55
4f 4g)	8bn (>8bbn	p
.	4cc 4ccc)	.
8e- (>8g	.	.
=56	=56	=56
4f 4a-	8dd (>8ddd	.
.	4cc 4ccc)	.
8e- 8g)	.	.
=57	=57	=57
(8fL	(8aa-L	.
8g	8gg	.
8GJ	8bnJ)	.
=58	=58	=58
.	(16qqbn/	.
8cL	4.cc)	.
8d	.	.
8e-J)	.	.
=59	=59	=59
(<8FL	(8a-L	mf
8G	8g	.
8GGJ	8BnJ)	.
=60	=60	=60
.	(8qqAn/	.
4CC) 4C	4.c)	.
8r	.	.
=:|!	=:|!	=:|!
*-	*-	*-
!!!RDF**kern: > = above
!!!RDF**kern: < = below
!!!URL-vhv: https://verovio.humdrum.org/?file=scarlatti/sonatas/L004K158.krn
!!!URL-pdf: https://github.com/craigsapp/scarlatti-keyboard-sonatas/blob/master/reference-edition/L004K158.pdf
!!!PTL: Domenico Scarlatti: Opere complete per clavicembalo
!!!PED: Longo, Alessandro
!!!PPR: Ricordi
!!!PPP: Milan
!!!PDT: 1906-1913
!!!YEC: 2021 Craig Stuart Sapp
!!!YEM: Licence: (CC BY-NC-SA 4.0) https://creativecommons.org/licenses/by-nc-sa/4.0
!!!ENC: Craig Stuart Sapp
!!!END: 2021/02/08
!!!EED: Craig Stuart Sapp
!!!EEV: 2021/02/09
